X:1
T:Votre toast je peux vous le rendre
T:Votre toast je peux vous le rendre
T:Air du Toréador - Carmen
T:Georges BIZET
C:Georges Bizet
%%score 1 2 3
L:1/8
Q:1/4=108
M:4/4
K:Ab
V:1 treble nm="Soprano" snm="S."
V:2 treble nm="Mezzo-soprano" snm="Mzs."
V:3 treble nm="Alto" snm="A."
V:1
"^Allegro molto moderato" z2 | z8 | z8 | z8 | z8 | z8 | z8 | z8 | z8 | z8 | z8 | z8 | z8 | z8 | %14
w: ||||||||||||||
 z8 | z8 | z8 | z8 | z8 | z8 | z8 | z8 | z8 | z8 | z8 | z8 | z8 | z8 | z8 | z8 | z8 | z8 | z8 | %33
w: |||||||||||||||||||
 z8 | z8 | z8 | z8 ||[K:F] z8 | z8 | z8 | z8 | z8 | z8 | z8 | z8 | z8 | z8 | z8 | z8 | %49
w: ||||||||||||||||
 c2 d>c A2 A2 |{/B} A>G A>B A2- A z | B2 G>c A2- A z | F2 D>G C2- C!pp! z | (G4 B2 d2 | %54
w: To- ré- a- dor en|gar _ _ _ de !|To- ré- a- dor! *|To- ré- a- dor! *|En com- bat-|
 D2- D) z (A2 F2 | E4 E4 | ^c2 A2 E2 A) !breath!z | (G4 B2 B2 | A8- | %59
w: tant * son- ge|qu'un oeil|noir te re- garde|Et que l'a-|mour|
 A/)!pp! z/ (3(F/G/F/) CB A z G z ||[K:Ab] F z z2 z4 | z8 | z8 | z8 | z8 | z8 | z8 | z8 | z8 | z8 | %70
w: _ l'a- * * mour, l'a- mour t'at-|tend!||||||||||
 z8 | z8 | z8 | z8 | z8 | z8 | z8 | z8 | z8 | z8 | z8 | z8 | z8 | z8 | z8 | z8 | z8 | z8 | z8 | %89
w: |||||||||||||||||||
 z8 | z8 | z8 | z8 | z8 | z8 ||[K:F] z8 | z8 | z8 | z8 | z8 | z8 | z8 | z8 | z8 | z8 | z8 | z8 | %107
w: ||||||||||||||||||
 c2 d>c A2 A2 |{/B} A>G A>B A2- A z | B2 G>c A2- A z | F2 D>G C2- C!pp! z | (G4 B2 d2 | %112
w: To- ré- a- dor en|gar _ _ _ de !|To- ré- a- dor! *|To- ré- a- dor! *|En com- bat-|
 D2- D) z (A2 F2 | E4 E4 | ^c2 A2 E2 A) !breath!z | (G4 B2 B2 | A8- | %117
w: tant * son- ge|qu'un oeil|noir te re- garde|Et que l'a-|mour|
 A/)!pp! z/ (3(F/G/F/) CB A z G z | F z z2 z4 | z8 | z8 |!f! z2 (F>A) (A>c) (c>f) | %122
w: _ l'a- * * mour, l'a- mour t'at-|tend!|||To- * ré- * a- *|
 f z (A>c) (c>f) (f>a) | a4- a z!ff! z2 | g2 !fermata!c4- c>f | f4- f z z2 | z8 | z8 | z8 |] %129
w: dor! To- * ré- * a- *|dor! *|l’a- mour- * t’at-|tend !||||
V:2
 z2 | z8 | z8 | z8 | z8 | z8 | z8 | z8 | z8 | z8 | z8 | z8 | z8 | z8 | z8 | z8 | z8 | z8 | z8 | %19
w: |||||||||||||||||||
 z8 | z8 | z8 | z8 | z8 | z8 | z8 | z8 | z8 | z8 | z8 | z8 | z8 | z8 | z8 | z8 | z8 | z8 || %37
w: ||||||||||||||||||
[K:F] z8 | z8 | z8 | z8 | z8 | z8 | z8 | z8 | z8 | z8 | z8 | z8 | c2 d>c A2 A2 | %50
w: ||||||||||||To- ré- a- dor en|
{/B} A>G A>B A2- A z | B2 G>c A2- A z | F2 D>G C2- C!pp! z | (D8 | D4 D4 | C2) z2 (E4 | %56
w: gar _ _ _ de !|To- ré- a- dor! *|To- ré- a- dor! *|En|com- bat-|tant oui,|
 E4 !breath!E4) | (G4 G2 D2 | C8- | C/) z/ (3(F/G/F/) CB A z G z ||[K:Ab] F z z2 z4 | z8 | z8 | %63
w: son- ge|que l'a- *|mour,-|* l'a- * * mour, l’a- mour t'at-|tend!|||
 z8 | z8 | z8 | z8 | z8 | z8 | z8 | z8 | z8 | z8 | z8 | z8 | z8 | z8 | z8 | z8 | z8 | z8 | z8 | %82
w: |||||||||||||||||||
 z8 | z8 | z8 | z8 | z8 | z8 | z8 | z8 | z8 | z8 | z8 | z8 | z8 ||[K:F] z8 | z8 | z8 | z8 | z8 | %100
w: ||||||||||||||||||
 z8 | z8 | z8 | z8 | z8 | z8 | z8 | c2 d>c A2 A2 |{/B} A>G A>B A2- A z | B2 G>c A2- A z | %110
w: |||||||To- ré- a- dor en|gar _ _ _ de !|To- ré- a- dor! *|
 F2 D>G C2- C!pp! z | (D8 | D4 D4 | C2) z2 (E4 | E4 !breath!E4) | (G4 G2 D2 | C8- | %117
w: To- ré- a- dor! *|En|com- bat-|tant oui,|son- ge|que l'a- *|mour,-|
 C/) z/ (3(F/G/F/) CB A z G z | F z z2 z4 | z8 | z8 |!f! z2 (C>F) (F>A) (A>c) | %122
w: * l'a- * * mour, l’a- mour t'at-|tend!|||To- * ré- * a- *|
 c z (C>F) (F>A) (A>=B) | =B4- B z!ff! z2 | c2 !fermata!c4- c>f | f4- f z z2 | z8 | z8 | z8 |] %129
w: dor! To- * ré- * a- *|dor! *|l'a- mour- * t’at-|tend !||||
V:3
 z2 | z8 | z8 | z8 | z8 | z8 | z8 | z8 | z8 | z8 | z8 | z8 | z8 | z8 | z8 | z8 | z8 | z8 | z8 | %19
w: |||||||||||||||||||
 z8 | z8 | z8 | z8 | z8 | z8 | z8 | z8 | z8 | z8 | z8 | z8 | z8 | z8 | z8 | z8 | z8 | z8 || %37
w: ||||||||||||||||||
[K:F] z8 | z8 | z8 | z8 | z8 | z8 | z8 | z8 | z8 | z8 | z8 | z8 | C2 D>C A,2 A,2 | %50
w: ||||||||||||To- ré- a- dor en|
{/B,} A,>G, A,>B, A,2- A, z | B,2 G,>C A,2- A, z | F2 D>G C2- C!pp! z | B, z D z B, z G, z | %54
w: gar _ _ _ de !|To- ré- a- dor!- *|To- ré- a- dor! *|Et son- ge bien|
 F, z A, z F, z D z | E z C z =B, z E z | A, z E z ^C z A, z | B, z D z B, z G, z | %58
w: oui, son- geen com-|bat- tant qu’un œil|noir te re- gar-|deet que l’a- mour|
 C z F, z A, z C z |!pp! C/ z/ z z2 z2 C z ||[K:Ab] F z z2 z4 | z8 | z8 | z8 | z8 | z8 | z8 | z8 | %68
w: t’at- tend oui, l’a-|mour t’at-|tend!||||||||
 z8 | z8 | z8 | z8 | z8 | z8 | z8 | z8 | z8 | z8 | z8 | z8 | z8 | z8 | z8 | z8 | z8 | z8 | z8 | %87
w: |||||||||||||||||||
 z8 | z8 | z8 | z8 | z8 | z8 | z8 | z8 ||[K:F] z8 | z8 | z8 | z8 | z8 | z8 | z8 | z8 | z8 | z8 | %105
w: ||||||||||||||||||
 z8 | z8 | C2 D>C A,2 A,2 | A,>G, A,>B, A,2- A, z | B,2 G,>C A,2- A, z | F2 D>G C2- C!pp! z | %111
w: ||To- ré- a- dor en|gar _ _ _ de !|To- ré- a- dor!- *|To- ré- a- dor! *|
 B, z D z B, z G, z | F, z A, z F, z D z | E z C z =B, z E z | A, z E z ^C z A, z | %115
w: Et son- ge bien|oui, son- geen com-|bat- tant qu’un œil|noir te re- gar-|
 B, z D z B, z G, z | C z F, z A, z C z |!pp! C/ z/ z z2 z2 C z | F z z2 z4 | z8 | z8 | %121
w: deet que l’a- mour|t’at- tend oui, l’a-|mour t’at-|tend!|||
!f! z2 (A,>C) (C>F) (F>A) | A z (C>F,) (F,>A,) (A,>D) | D4- D z!ff! z2 | C2 !fermata!C4- C>F | %125
w: To- * ré- * a- *|dor! To- * ré- * a- *|dor! *|l'a- mour- * t’at-|
 F4- F z z2 | z8 | z8 | z8 |] %129
w: tend !||||

